!!!COM:	Bach, Johann Sebastian
!!!OMV:	Verleih uns Frieden gn&auml;diglich
!!!OTL:	Verleih uns Frieden gn&auml;diglich
**kern	**fb	**kern	**kern	**kern	**kern
*part5	*part5	*part4	*part3	*part2	*part1
*staff5	*	*staff4	*staff3	*staff2	*staff1
*I"Continuo	*	*I"Voice	*I"Voice	*I"Voice	*I"Voice
*I'Cont.	*	*I'V	*I'V	*I'V	*I'V
*clefF4	*	*clefF4	*clefGv2	*clefG2	*clefG2
*Trd0c0	*	*	*	*	*
*k[f#c#g#]	*	*k[f#c#g#]	*k[f#c#g#]	*k[f#c#g#]	*k[f#c#g#]
*M4/4	*	*M4/4	*M4/4	*M4/4	*M4/4
8F#L	.	8F#L	4A	4c#	4f#
8EJ	.	8EJ	.	.	.
=2	=2	=2	=2	=2	=2
4D	.	4D	4A	4d	4f#
8C#L	6 4 2	8C#L	4A	4d	4f#
8BBJ	.	8BBJ	.	.	.
4C#	#	4C#	8G#L	[2c#	4e#X
.	.	.	8BJ	.	.
8D#XL	7	8D#XL	8AL	.	8f#L
8E#XJ	6 5	8E#XJ	8G#J	.	8g#J
=3	=3	=3	=3	=3	=3
8F#L	.	8F#L	4F#	8c#L]	4a
8BBJ	7 5	8BBJ	.	8f#J	.
4C#	4	4C#	8c#L	8f#L	4g#
.	#	.	8BJ	8e#XJ	.
4FF#;	.	4FF#;	4A;	4c#;	4f#;
4F#	.	4F#	4c#	4f#	4a
=4	=4	=4	=4	=4	=4
4G#	6	4G#	4B	8enL	4b
.	.	.	.	8f#J	.
8F#L	7 4 2	8F#L	4e	4g#	4b
8EJ	.	8EJ	.	.	.
8AL	.	8AL	4.e	[2a	8cc#L
8G#J	6	8G#J	.	.	8bJ
8F#L	7	8F#L	.	.	4a
8EJ	7	8EJ	16dLL	.	.
.	6	.	16c#JJ	.	.
=5	=5	=5	=5	=5	=5
4D	6 5	4D	4B	8a]	2b
.	.	.	.	16g#LL	.
.	.	.	.	16f#JJ	.
4E	.	4E	4e	4g#	.
4AA;	.	4AA;	4e;	4a;	4cc#;
8AL	.	8AL	4e	4a	4cc#
8G#J	.	8G#J	.	.	.
=6	=6	=6	=6	=6	=6
!!linebreak:original
4F#	7 5	4F#	8eL	4a	4cc#
.	6	.	8dJ	.	.
8G#L	#6\ 5	8G#L	4d	8e#XL	4b
8F#J	8	8F#J	.	8f#J	.
4E#X	6	4E#X	4c#	4g#	8cc#L
.	5	.	.	.	8bJ
8F#L	.	8F#L	4c#	4f#	4a
8EnJ	.	8EnJ	.	.	.
=7	=7	=7	=7	=7	=7
4D#X	6	4D#X	4B	4f#	8bL
.	5	.	.	.	8aJ
4E	.	4E	4B	4en	4g#
4BB;	#	4BB;	4B;	4d#X;	4f#;
4B	5 #	4B	4B	8d#L	8f#L
.	6 #4|	.	.	8e#XJ	8g#J
=8	=8	=8	=8	=8	=8
8F#L	.	8F#L	4c#	4f#	4a
8EJ	.	8EJ	.	.	.
8DL	.	8DL	4d	4f#	4a
8C#J	.	8C#J	.	.	.
4BB	6	4BB	4d	8g#L	4b
.	5	.	.	8f#J	.
4C#	6 8	4C#	8c#L	4e#X	8aL
.	5 7	.	8BJ	.	8g#J
=9	=9	=9	=9	=9	=9
4D	5	4D	8AL	8f#L	2f#
.	.	.	8A#XJ	8enJ	.
8C#L	7 4 2	8C#L	4B	4d	.
8BBJ	.	8BBJ	.	.	.
4F#;	n	4F#;	4An;	4c#;	4f#;
4E	.	4E	4G#	4e	4b
=10	=10	=10	=10	=10	=10
4A	.	4A	4A	4e	4cc#
8G#L	6	8G#L	8BL	4e	4b
8AJ	.	8AJ	8c#J	.	.
4B	5	4B	4d	8dL	8f#L
.	6	.	.	8eJ	8g#J
8AL	6	8AL	4c#	4f#	4a
8BJ	.	8BJ	.	.	.
=11	=11	=11	=11	=11	=11
!!pagebreak:original
4c#	5 4	4c#	4.c#	4f#	8g#L
.	.	.	.	.	8f#J
4C#	#	4C#	.	4e#X	4g#
.	.	.	8B	.	.
4F#;	.	4F#;	4A;	4c#;	4f#;
8FF#L	.	8F#L	4A	4c#	4f#
8GG#J	.	8G#J	.	.	.
=12	=12	=12	=12	=12	=12
8AAL	6	8AL	4A	4c#	4f#
8BBJ	.	8BJ	.	.	.
[4C#	.	4c#	4G#	4c#	4en
8C#L]	6 4 2	8c#L	4F#	4d	4a
8DJ	.	8dJ	.	.	.
8C#L	7 5 2	8c#L	4G#	4d	4b
8BBJ	.	8BJ	.	.	.
=13	=13	=13	=13	=13	=13
8AAL	.	8AL	8AL	4c#	8cc#L
8EE#XJ	6 5	8E#XJ	8G#J	.	8bJ
8FF#L	.	8F#L	4A	4c#	4a
8C#J	6	8C#J	.	.	.
8DL	6 5	8DL	4A	4f#	4b
8BBJ	.	8BBJ	.	.	.
4E	.	4En	4G#	4e	4b
=14	=14	=14	=14	=14	=14
2AA;	.	2AA;	2A;	2e;	2cc#;
2BB	6	2BB	2G#	2b	2dd
=15	=15	=15	=15	=15	=15
4C#	.	4C#	4A	4e	4cc#
4D	6 5	4D	4A	4f#	8b
.	.	.	.	.	16cc#LL
.	.	.	.	.	16ddJJ
4E	4	4E	8AL	4e	4.b
.	.	.	8F#J	.	.
4EE	3	4E	8G#L	4e	.
.	.	.	8dJ	.	8a
=16	=16	=16	=16	=16	=16
2.AA;	.	2.AA;	2.c#;	2.e;	2.a;
4E#X	6	4E#X	4c#	4g#	4cc#
=17	=17	=17	=17	=17	=17
!!linebreak:original
4.F#	.	4.F#	4.f#	8aL	8cc#L
.	.	.	.	8g#J	8bJ
.	.	.	.	4f#	4a
8F#	.	8F#	8e	.	.
8G#L	7 5	8G#L	8dL	4f#	8bL
8A#XJ	6	8A#XJ	8c#J	.	8cc#J
4B	.	4B	8BL	8f#L	4dd
.	.	.	8G#J	8e#XJ	.
=18	=18	=18	=18	=18	=18
2F#;	.	2F#;	2An;	2f#;	2cc#;
4E	.	4En	4B	8g#L	4een
.	.	.	.	8bJ	.
4E	6 5	4E	4e	8bL	4cc#
.	4	.	.	8aJ	.
=19	=19	=19	=19	=19	=19
[1E	7 4	4E	4e	8aL	4dd
.	3	.	.	8g#J	.
.	6 4	8EL	8eL	8aL	8cc#L
.	5 3 7	8EJ	8dJ	8g#J	8bJ
.	6 4	4E	8c#L	8aL	4cc#
.	.	.	8BJ	8bJ	.
.	.	4E	8AL	4cc#	4cc#
.	.	.	8G#J	.	.
=20	=20	=20	=20	=20	=20
4E]	7 6 2	4E	8F#L	8cc#L	4dd
.	5 3	.	8G#J	8bJ	.
4F#	5	4F#	4A	4a	8cc#L
.	6	.	.	.	8ddJ
4G#	6	4G#	4B	4e	8eeL
.	5	.	.	.	8ddJ
4A	.	4A	4A	4e	4cc#
=21	=21	=21	=21	=21	=21
4D	6 5	4D	4A	4f#	2b
4E	.	4E	4G#	8eL	.
.	.	.	.	8dJ	.
2AA;	.	2AA;	2E;	2c#;	2a;
=22	=22	=22	=22	=22	=22
!!pagebreak:original
8AAL	.	8AAL	4A	4e	4cc#
8BBJ	.	8BBJ	.	.	.
8C#L	6	8C#L	4A	4e	4cc#
8AAJ	.	8AAJ	.	.	.
8DL	.	8DL	4A	4f#	4a
8C#J	.	8C#J	.	.	.
8DL	6	8DL	4d	4f#	4b
8EJ	.	8EJ	.	.	.
=23	=23	=23	=23	=23	=23
8F#L	.	4F#	4c#	4f#	4a
8FF#J	.	.	.	.	.
8GG#L	6	8G#L	4B	4e	4g#
8AAJ	.	8AJ	.	.	.
2BB;	5 4	2B;	2B;	4e	2f#;
.	3	.	.	4d;	.
=24	=24	=24	=24	=24	=24
4.C#	5 3	4.C#	4G#	4c#	4e
.	6 4	.	8AL	4d	8f#L
8BB	6	8BB	8BJ	.	8g#J
4AA	.	4AA	4c#	4e	4a
8BBL	.	8BBL	4B	4d	4f#
8C#J	.	8C#J	.	.	.
=25	=25	=25	=25	=25	=25
2.D;	5	2.D;	2.A;	2.d;	2.f#;
[4A	.	[4A	8AL	[4c#	4e
.	.	.	8G#J	.	.
=26	=26	=26	=26	=26	=26
8AL]	6	8AL]	4F#	2.c#]	4f#
8G#J	.	8G#J	.	.	.
8F#L	5 2	8F#L	4B	.	4g#
8E#XJ	.	8E#XJ	.	.	.
4F#	.	4F#	4A	.	4a
8BBL	6	8BBL	4B	8dL	4g#
8C#J	7 5	8C#J	.	8enJ	.
=27	=27	=27	=27	=27	=27
8DL	.	8DL	4A	4f#	2.f#
8C#J	.	8C#J	.	.	.
8BBL	6 5	8BBL	8G#L	8g#L	.
8AAJ	6	8AAJ	8F#J	8aJ	.
4BB	6 5	4BB	8G#L	4d	.
.	.	.	8AJ	.	.
4C#	#	4C#	4B	4c#	4e#X
=28	=28	=28	=28	=28	=28
!!linebreak:original
2.FF#;	#	2.F#;	2.A#X;	2.c#;	2.f#;
=||	=||	=||	=||	=||	=||
*-	*-	*-	*-	*-	*-
!!!system-decoration: s1,s2,s3,s4,s5
